Adwaita++/actions/22/bwtonal.svg

<svg height="22" viewBox="0 0 22 22" width="22" xmlns="http://www.w3.org/2000/svg">
  <path d="m8 1a5 5 0 0 0 -5 5 5 5 0 0 0 0 .0078125 5 5 0 0 0 -2 3.9921875 5 5 0 0 0 5 5 5 5 0 0 0 1.9960938-.421875 5 5 0 0 0 2.0039062.421875 5 5 0 0 0 5-5 5 5 0 0 0 -2-3.9921875 5 5 0 0 0 0-.0078125 5 5 0 0 0 -5-5z" fill="#444" transform="translate(3 3)"/>
</svg>

<svg xmlns="http://www.w3.org/2000/svg" width="22" height="22" viewBox="0 0 22 22">
 <defs>
  <style id="current-color-scheme" type="text/css">
   .ColorScheme-Text { color:#444444; } .ColorScheme-Highlight { color:#4285f4; }
  </style>
 </defs>
 <path style="fill:currentColor" class="ColorScheme-Text" d="M 8 1 A 5 5 0 0 0 3 6 A 5 5 0 0 0 3 6.0078125 A 5 5 0 0 0 1 10 A 5 5 0 0 0 6 15 A 5 5 0 0 0 7.9960938 14.578125 A 5 5 0 0 0 10 15 A 5 5 0 0 0 15 10 A 5 5 0 0 0 13 6.0078125 A 5 5 0 0 0 13 6 A 5 5 0 0 0 8 1 z" transform="translate(3 3)"/>
</svg>
